app/images/src/facebook--passive.svg

<svg width="15" height="26" viewBox="0 0 15 26" fill="none" xmlns="http://www.w3.org/2000/svg">
<path d="M14.4351 0.00540974L10.8373 0C6.7953 0 4.18317 2.51147 4.18317 6.39863V9.34883H0.565722C0.253132 9.34883 0 9.58632 0 9.87926V14.1538C0 14.4467 0.253421 14.6839 0.565722 14.6839H4.18317V25.4698C4.18317 25.7628 4.4363 26 4.74889 26H9.46863C9.78122 26 10.0343 25.7625 10.0343 25.4698V14.6839H14.264C14.5766 14.6839 14.8297 14.4467 14.8297 14.1538L14.8314 9.87926C14.8314 9.73861 14.7717 9.6039 14.6658 9.50436C14.5598 9.40483 14.4155 9.34883 14.2654 9.34883H10.0343V6.84791C10.0343 5.64587 10.34 5.03565 12.0109 5.03565L14.4346 5.03484C14.7469 5.03484 15 4.79735 15 4.50469V0.535564C15 0.243168 14.7472 0.00595071 14.4351 0.00540974Z" fill="white" fill-opacity="0.6"/>
<path d="M14.4351 0.00540974L10.8373 0C6.7953 0 4.18317 2.51147 4.18317 6.39863V9.34883H0.565722C0.253132 9.34883 0 9.58632 0 9.87926V14.1538C0 14.4467 0.253421 14.6839 0.565722 14.6839H4.18317V25.4698C4.18317 25.7628 4.4363 26 4.74889 26H9.46863C9.78122 26 10.0343 25.7625 10.0343 25.4698V14.6839H14.264C14.5766 14.6839 14.8297 14.4467 14.8297 14.1538L14.8314 9.87926C14.8314 9.73861 14.7717 9.6039 14.6658 9.50436C14.5598 9.40483 14.4155 9.34883 14.2654 9.34883H10.0343V6.84791C10.0343 5.64587 10.34 5.03565 12.0109 5.03565L14.4346 5.03484C14.7469 5.03484 15 4.79735 15 4.50469V0.535564C15 0.243168 14.7472 0.00595071 14.4351 0.00540974Z" fill="#C4C4C4"/>
</svg>

<svg width="15" height="26" fill="none" xmlns="http://www.w3.org/2000/svg"><path d="M14.435.005L10.837 0C6.795 0 4.183 2.511 4.183 6.399v2.95H.566c-.313 0-.566.237-.566.53v4.275c0 .293.253.53.566.53h3.617V25.47c0 .293.253.53.566.53h4.72c.312 0 .565-.238.565-.53V14.684h4.23c.313 0 .566-.237.566-.53l.001-4.275a.52.52 0 00-.165-.375.586.586 0 00-.4-.155h-4.232V6.848c0-1.202.306-1.812 1.977-1.812l2.424-.001c.312 0 .565-.238.565-.53V.535c0-.292-.253-.529-.565-.53z" fill="#fff" fill-opacity=".6"/><path d="M14.435.005L10.837 0C6.795 0 4.183 2.511 4.183 6.399v2.95H.566c-.313 0-.566.237-.566.53v4.275c0 .293.253.53.566.53h3.617V25.47c0 .293.253.53.566.53h4.72c.312 0 .565-.238.565-.53V14.684h4.23c.313 0 .566-.237.566-.53l.001-4.275a.52.52 0 00-.165-.375.586.586 0 00-.4-.155h-4.232V6.848c0-1.202.306-1.812 1.977-1.812l2.424-.001c.312 0 .565-.238.565-.53V.535c0-.292-.253-.529-.565-.53z" fill="#C4C4C4"/></svg>
